public/airlines/WZ.svg

<svg width="200" height="28" viewBox="0 0 200 28" fill="none" xmlns="http://www.w3.org/2000/svg"><path d="M116.69 0.666626H103.311L90.8789 17.7333L97.6357 27C97.7708 27.2 98.0411 27.2 98.1762 27L117.028 1.19996C117.095 0.999961 116.96 0.666626 116.69 0.666626Z" fill="url(#paint0_linear)"/><path d="M81.689 0.666636C74.4592 0.666636 70.2701 8.7333 74.4592 14.5333L83.5133 26.9333C83.6484 27.1333 83.9187 27.1333 84.0538 26.9333L103.243 0.599976H81.689V0.666636Z" fill="#E62731"/><path d="M66.4188 3.60007C64.9999 2.60007 63.4458 1.80007 61.6215 1.40007C59.8648 0.933398 58.108 0.733398 56.3512 0.733398H47.3648C47.0945 0.733398 46.8242 0.9334 46.8242 1.26673V26.6667C46.8242 26.9334 47.0269 27.2001 47.3648 27.2001H56.3512C58.108 27.2001 59.8648 26.9334 61.6215 26.4667C63.3783 25.9334 64.9999 25.1334 66.4188 24.0667C67.8377 23.0001 68.9864 21.6001 69.8648 19.9334C70.7431 18.2667 71.2161 16.2667 71.2161 13.9334C71.2161 11.4667 70.7431 9.3334 69.8648 7.66673C68.9864 6.00006 67.8377 4.60007 66.4188 3.60007ZM65.135 18.3334C64.5269 19.5334 63.7161 20.4001 62.7026 21.1334C61.6891 21.8001 60.608 22.3334 59.3242 22.6001C58.108 22.8667 56.8242 23.0001 55.608 23.0001H51.6215V4.7334H55.608C56.8242 4.7334 58.108 4.86674 59.3242 5.1334C60.5404 5.40007 61.6891 5.86673 62.7026 6.5334C63.7161 7.20006 64.5269 8.13339 65.135 9.3334C65.7431 10.5334 66.081 12.0667 66.081 13.9334C66.081 15.6667 65.7431 17.2001 65.135 18.3334Z" fill="#46484D"/><path d="M146.891 0.666626H143.175C142.905 0.666626 142.635 0.866628 142.635 1.19996V20.4666H142.567L131.351 2.66663C130.608 1.46663 129.189 0.666626 127.77 0.666626H124.324C124.053 0.666626 123.783 0.866628 123.783 1.19996V26.6C123.783 26.8666 123.986 27.1333 124.324 27.1333H128.04C128.31 27.1333 128.581 26.9333 128.581 26.6V6.66663H128.648L140.135 25.0666C140.878 26.3333 142.297 27.0666 143.716 27.0666H146.891C147.162 27.0666 147.432 26.8666 147.432 26.5333V1.1333C147.364 0.933301 147.162 0.666626 146.891 0.666626Z" fill="#46484D"/><path d="M116.622 4.8001L112.568 10.3334C112.365 10.6001 112.298 10.8668 112.298 11.2001V26.5334C112.298 26.8001 112.501 27.0668 112.838 27.0668H116.555C116.825 27.0668 117.095 26.8668 117.095 26.5334V4.86676C117.028 4.73342 116.757 4.66676 116.622 4.8001Z" fill="#46484D"/><path d="M176.216 12.0667H169.527C169.324 12.0667 169.054 12.2 168.919 12.3333L166.622 15.3333C166.419 15.6 166.622 15.9333 166.892 15.9333H172.094V22.6667C170.608 23.2667 168.784 23.6 166.757 23.6C165.27 23.6 163.919 23.3333 162.77 22.8667C162.297 22.6667 161.824 22.4 161.419 22.1333C160.811 21.7333 160.27 21.3333 159.797 20.8C158.986 19.9333 158.378 18.9333 157.905 17.7333C157.432 16.5333 157.23 15.2667 157.23 13.8C157.23 12.5333 157.432 11.4 157.77 10.3333C157.838 10.2 157.838 10.1333 157.905 10C158.378 8.8 158.986 7.80001 159.797 6.93334C160.608 6.06667 161.554 5.4 162.703 4.86667C163.851 4.4 165.135 4.13334 166.554 4.13334C167.973 4.13334 169.324 4.40001 170.54 4.93334C171.419 5.33334 172.23 5.73334 172.77 6.26667C172.973 6.46667 173.378 6.4 173.513 6.2L175.743 3.26667C175.946 3.00001 175.878 2.66667 175.608 2.53334C174.662 1.86667 173.581 1.33334 172.297 0.933339C170.54 0.333339 168.581 0 166.419 0C164.324 0 162.432 0.333333 160.676 1C158.919 1.66667 157.365 2.6 156.081 3.73334C155.405 4.33334 154.797 5.06667 154.257 5.80001C153.784 6.53334 153.378 7.26667 152.973 8.06667C152.23 9.8 151.824 11.6667 151.824 13.8C151.824 14.2 151.824 14.6 151.892 14.9333C152.027 16.5333 152.365 18.0667 152.905 19.4667C153.649 21.2 154.594 22.6667 155.946 23.8667C157.23 25.0667 158.784 26.0667 160.54 26.7333C162.365 27.4 164.324 27.7333 166.486 27.7333C168.581 27.7333 170.473 27.5333 172.094 27.2C173.581 26.8667 174.932 26.4667 176.149 25.8667C176.419 25.7333 176.554 25.4667 176.554 25.2V12.4667C176.757 12.2667 176.554 12.0667 176.216 12.0667Z" fill="#46484D"/><path d="M13.6486 15.2667C15.2027 14.8 16.4189 14.2 17.5676 13C18.6486 11.8 19.1892 10.2 19.1892 8.33337C19.1892 6.93337 18.9189 5.73338 18.3784 4.80005C17.8378 3.80005 17.0946 3.06672 16.1486 2.46672C15.2027 1.86672 14.1892 1.46671 12.973 1.20004C11.7567 0.933376 10.5405 0.800049 9.32432 0.800049H0.540532C0.270262 0.800049 0 1.00004 0 1.33337V26.7334C0 27 0.202694 27.2667 0.540532 27.2667H4.25675C4.52702 27.2667 4.7973 27.0667 4.7973 26.7334V16.0667H8.91891L14.7297 26.8667C14.8649 27.1334 15.1351 27.2667 15.4054 27.2667H19.4595C19.7973 27.2667 20 26.9334 19.8649 26.6L13.6486 15.2667ZM12.5676 11.3334C12.027 11.6 11.4189 11.8 10.7432 11.8667C10.0676 12 9.39189 12 8.71621 12H4.7973V4.60005H9.12162C9.72973 4.60005 10.3378 4.66671 11.0135 4.73338C11.6892 4.86671 12.2297 5.00005 12.7027 5.26671C13.1757 5.53338 13.6487 5.93338 13.9189 6.40004C14.2568 6.86671 14.3919 7.46671 14.3919 8.20004C14.3919 9.00004 14.1892 9.66671 13.8514 10.1334C13.5135 10.6667 13.1081 11.0667 12.5676 11.3334Z" fill="#46484D"/><path d="M198.783 16.1333C198.31 15.2667 197.635 14.5333 196.891 14C196.148 13.4 195.27 13 194.324 12.6C193.378 12.2667 192.5 11.9333 191.689 11.6667C191.621 11.6667 191.486 11.6 191.418 11.6C191.283 11.5333 191.148 11.5333 191.081 11.4667C190.54 11.3333 190.067 11.1333 189.662 11C189.054 10.8 188.513 10.5333 188.04 10.2C187.567 9.93333 187.229 9.53334 187.027 9.13334C186.756 8.73334 186.621 8.20001 186.621 7.60001C186.621 6.93334 186.756 6.40001 187.027 5.93334C187.297 5.46667 187.702 5.13334 188.175 4.80001C188.648 4.53334 189.121 4.33334 189.662 4.13334C190.202 4.00001 190.743 3.93334 191.351 3.93334C192.297 3.93334 193.243 4.13334 194.121 4.60001C194.459 4.73334 194.797 4.93334 195.067 5.13334C195.337 5.26667 195.608 5.26667 195.81 5L197.77 2.33333C197.973 2.06667 197.905 1.73334 197.635 1.60001C197.027 1.26667 196.418 1 195.743 0.733337C194.324 0.266671 192.973 0 191.621 0C190.405 0 189.189 0.133341 188.04 0.466675C186.891 0.800008 185.81 1.26667 184.932 1.86667C183.986 2.53334 183.243 3.33334 182.702 4.26667C182.162 5.26667 181.824 6.4 181.824 7.73334C181.824 9 182.027 10 182.432 10.8667C182.837 11.7333 183.378 12.4 183.986 13C184.662 13.6 185.337 14 186.148 14.4C186.891 14.7333 187.635 15 188.378 15.2C188.446 15.2 188.513 15.2667 188.581 15.2667C188.581 15.2667 188.581 15.2667 188.648 15.2667C189.459 15.5333 190.27 15.8 191.013 16.0667C191.756 16.3333 192.432 16.6 192.973 16.9333C193.513 17.2667 193.986 17.6667 194.324 18.1333C194.662 18.6 194.797 19.2 194.797 19.8667C194.797 20.6 194.662 21.2 194.391 21.6667C194.121 22.1333 193.716 22.5333 193.243 22.8667C192.77 23.2 192.229 23.4 191.689 23.5333C191.081 23.6667 190.54 23.7333 190 23.7333C188.918 23.7333 187.837 23.4667 186.756 22.9333C185.878 22.5333 185 21.9333 184.527 21.5333C184.324 21.3333 183.918 21.4 183.783 21.6L181.756 24.3333C181.621 24.5333 181.621 24.8667 181.824 25.0667C182.364 25.5333 183.513 26.3333 184.797 26.8C186.486 27.4 188.175 27.7333 189.932 27.7333C191.216 27.7333 192.5 27.5333 193.648 27.2C194.864 26.8667 195.878 26.3333 196.756 25.6C197.635 24.9333 198.378 24 198.851 23C199.391 21.9333 199.662 20.7333 199.662 19.2667C199.527 18.0667 199.256 17 198.783 16.1333Z" fill="#46484D"/><path d="M41.6886 22.9334H28.5805V15.4668H40.3373C40.6075 15.4668 40.8778 15.2668 40.8778 14.9334V12.0001C40.8778 11.7334 40.6751 11.4668 40.3373 11.4668H28.5805V4.73343H32.2967H41.6886C41.9589 4.73343 42.2292 4.53343 42.2292 4.20009V1.13343C42.2292 0.866766 42.0264 0.600098 41.6886 0.600098H29.1886H28.3102C25.8102 0.600098 23.7832 2.6001 23.7832 5.06676V22.6001C23.7832 25.0668 25.8102 27.0668 28.3102 27.0668H41.6886C41.9589 27.0668 42.2292 26.8668 42.2292 26.5334V23.4001C42.2292 23.2001 41.9589 22.9334 41.6886 22.9334Z" fill="#46484D"/><defs><linearGradient id="paint0_linear" x1="90.858" y1="13.9" x2="117.033" y2="13.9" gradientUnits="userSpaceOnUse"><stop offset="0" stop-color="#B02224"/><stop offset=".072" stop-color="#B72226"/><stop offset=".309" stop-color="#CC252B"/><stop offset=".544" stop-color="#DA262F"/><stop offset=".776" stop-color="#E32631"/><stop offset="1" stop-color="#E62731"/></linearGradient></defs></svg>

<svg xmlns="http://www.w3.org/2000/svg" width="200" height="28" fill="none"><path fill="url(#a)" d="M116.69.667h-13.379L90.879 17.733 97.636 27c.135.2.405.2.54 0l18.852-25.8c.067-.2-.068-.533-.338-.533"/><path fill="#E62731" d="M81.689.667c-7.23 0-11.419 8.066-7.23 13.866l9.054 12.4c.135.2.406.2.54 0L103.244.6H81.689z"/><path fill="#46484D" d="M66.419 3.6c-1.42-1-2.973-1.8-4.797-2.2a20.4 20.4 0 0 0-5.27-.667h-8.987c-.27 0-.54.2-.54.534v25.4a.53.53 0 0 0 .54.533h8.986c1.757 0 3.514-.267 5.27-.733 1.757-.534 3.379-1.334 4.798-2.4 1.419-1.067 2.567-2.467 3.446-4.134.878-1.666 1.351-3.666 1.351-6 0-2.466-.473-4.6-1.351-6.266C68.986 6 67.838 4.6 66.419 3.6m-1.284 14.733c-.608 1.2-1.419 2.067-2.432 2.8-1.014.667-2.095 1.2-3.379 1.467-1.216.267-2.5.4-3.716.4h-3.986V4.733h3.986c1.216 0 2.5.134 3.716.4 1.216.267 2.365.734 3.379 1.4q1.52 1 2.432 2.8c.608 1.2.946 2.734.946 4.6 0 1.734-.338 3.267-.946 4.4M146.891.667h-3.716c-.27 0-.54.2-.54.533v19.267h-.068l-11.216-17.8c-.743-1.2-2.162-2-3.581-2h-3.446a.53.53 0 0 0-.541.533v25.4a.53.53 0 0 0 .541.533h3.716c.27 0 .541-.2.541-.533V6.667h.067l11.487 18.4c.743 1.266 2.162 2 3.581 2h3.175a.53.53 0 0 0 .541-.534v-25.4c-.068-.2-.27-.466-.541-.466M116.622 4.8l-4.054 5.533c-.203.267-.27.534-.27.867v15.333a.53.53 0 0 0 .54.534h3.717c.27 0 .54-.2.54-.534V4.867c-.067-.134-.338-.2-.473-.067m59.594 7.267h-6.689c-.203 0-.473.133-.608.266l-2.297 3c-.203.267 0 .6.27.6h5.202v6.734c-1.486.6-3.31.933-5.337.933-1.487 0-2.838-.267-3.987-.733a8.7 8.7 0 0 1-1.351-.734c-.608-.4-1.149-.8-1.622-1.333-.811-.867-1.419-1.867-1.892-3.067s-.675-2.466-.675-3.933c0-1.267.202-2.4.54-3.467.068-.133.068-.2.135-.333.473-1.2 1.081-2.2 1.892-3.067.811-.866 1.757-1.533 2.906-2.066a10.2 10.2 0 0 1 3.851-.734c1.419 0 2.77.267 3.986.8.879.4 1.69.8 2.23 1.334.203.2.608.133.743-.067l2.23-2.933c.203-.267.135-.6-.135-.734-.946-.666-2.027-1.2-3.311-1.6-1.757-.6-3.716-.933-5.878-.933-2.095 0-3.987.333-5.743 1s-3.311 1.6-4.595 2.733c-.676.6-1.284 1.334-1.824 2.067a25 25 0 0 0-1.284 2.267c-.743 1.733-1.149 3.6-1.149 5.733 0 .4 0 .8.068 1.133.135 1.6.473 3.134 1.013 4.534.744 1.733 1.689 3.2 3.041 4.4 1.284 1.2 2.838 2.2 4.594 2.866 1.825.667 3.784 1 5.946 1 2.095 0 3.987-.2 5.608-.533 1.487-.333 2.838-.733 4.055-1.333.27-.134.405-.4.405-.667V12.467c.203-.2 0-.4-.338-.4m-162.567 3.2c1.554-.467 2.77-1.067 3.919-2.267 1.08-1.2 1.621-2.8 1.621-4.667 0-1.4-.27-2.6-.81-3.533-.541-1-1.284-1.733-2.23-2.333s-1.96-1-3.176-1.267A17 17 0 0 0 9.324.8H.541A.53.53 0 0 0 0 1.333v25.4a.53.53 0 0 0 .54.534h3.717c.27 0 .54-.2.54-.534V16.067H8.92l5.81 10.8c.136.266.406.4.676.4h4.054c.338 0 .541-.334.406-.667zm-1.081-3.934a5.3 5.3 0 0 1-1.825.534C10.068 12 9.392 12 8.716 12H4.797V4.6h4.325c.608 0 1.216.067 1.892.133.675.134 1.216.267 1.689.534.473.266.946.666 1.216 1.133.338.467.473 1.067.473 1.8 0 .8-.203 1.467-.54 1.933-.338.534-.744.934-1.284 1.2m186.215 4.8A6.5 6.5 0 0 0 196.891 14c-.743-.6-1.621-1-2.567-1.4-.946-.333-1.824-.667-2.635-.933-.068 0-.203-.067-.271-.067-.135-.067-.27-.067-.337-.133-.541-.134-1.014-.334-1.419-.467a6.1 6.1 0 0 1-1.622-.8 2.55 2.55 0 0 1-1.013-1.067c-.271-.4-.406-.933-.406-1.533 0-.667.135-1.2.406-1.667.27-.466.675-.8 1.148-1.133a10 10 0 0 1 1.487-.667 7 7 0 0 1 1.689-.2c.946 0 1.892.2 2.77.667a4.3 4.3 0 0 1 .946.533c.27.134.541.134.743-.133l1.96-2.667c.203-.266.135-.6-.135-.733-.608-.333-1.217-.6-1.892-.867-1.419-.466-2.77-.733-4.122-.733-1.216 0-2.432.133-3.581.467-1.149.333-2.23.8-3.108 1.4q-1.419.999-2.23 2.4c-.54 1-.878 2.133-.878 3.466 0 1.267.203 2.267.608 3.134.405.866.946 1.533 1.554 2.133.676.6 1.351 1 2.162 1.4q1.115.5 2.23.8c.068 0 .135.067.203.067h.067c.811.266 1.622.533 2.365.8.743.266 1.419.533 1.96.866.54.334 1.013.734 1.351 1.2.338.467.473 1.067.473 1.734q0 1.1-.406 1.8c-.27.466-.675.866-1.148 1.2s-1.014.533-1.554.666a7.8 7.8 0 0 1-1.689.2q-1.623 0-3.244-.8c-.878-.4-1.756-1-2.229-1.4-.203-.2-.609-.133-.744.067l-2.027 2.733c-.135.2-.135.534.068.734.54.466 1.689 1.266 2.973 1.733 1.689.6 3.378.933 5.135.933 1.284 0 2.568-.2 3.716-.533 1.216-.333 2.23-.867 3.108-1.6a7.2 7.2 0 0 0 2.095-2.6c.54-1.067.811-2.267.811-3.733-.135-1.2-.406-2.267-.879-3.134m-157.094 6.8H28.58v-7.466h11.756c.27 0 .54-.2.54-.534V12a.53.53 0 0 0-.54-.533H28.58V4.733h13.11c.27 0 .54-.2.54-.533V1.133A.53.53 0 0 0 41.69.6H28.31c-2.5 0-4.527 2-4.527 4.467V22.6c0 2.467 2.027 4.467 4.527 4.467h13.38c.27 0 .54-.2.54-.534V23.4c0-.2-.27-.467-.54-.467"/><defs><linearGradient id="a" x1="90.858" x2="117.033" y1="13.9" y2="13.9" gradientUnits="userSpaceOnUse"><stop offset="0" stop-color="#B02224"/><stop offset=".072" stop-color="#B72226"/><stop offset=".309" stop-color="#CC252B"/><stop offset=".544" stop-color="#DA262F"/><stop offset=".776" stop-color="#E32631"/><stop offset="1" stop-color="#E62731"/></linearGradient></defs></svg>
